X: 4
P: Polska Fr. \"Alvdalen
O: efter Einar Britt
B: Musik till Svenska Folkdanser, Ingvar Norman (ed.), 1971, p.30
Z: John Chambers <jc@trillian.mit.edu>
M: 3/4
L: 1/8
K: Dm
|: "Dm"[A2D2] fe {^c}d2 \
| "A7"{^c}e2 {e}g2 {g}a2 \
| {a}b2 (g/a/)g/e/ "Dm"f2 \
| {f}a2 (f/a/)f/d/ "A7"e>^c \
| A2 ge f>e \
|1,3 "A7"d^c A4 :|
|2,4 d^c "Dm"d4 :|\
|: "Dm"A2 fe f>e \
| "A7"d^c A2 E2 \
| F2 ED ^C>C \
|1,3 "Dm"D>D F>F A2 \
:|2,4 "Dm"D2 D4 :|
